X: 921
T: Gül Ağacı Değilem
C: Necip Mirkelâmoğlu
O: Turkey
F: http://compmusic.upf.edu/node/140
N: rast--turku--semai--gul_agaci--necip_mirkelamoglu
N: makam= rast
N: form= turku
N: usul= semai = 3/4
M: 3/4
L: 1/16
K: C _1/4B ^f  
Q: 1/4=132
%%MIDI tuningsystem comma53
d4 d4 {e}d2e2  | c4 c4 {d}c2d2  | B4 B4 {c}B2c2  | \
w:  ARANAĞME  |   |   | 
A4 A2B2 G4  | B8 A4  | B4 A4 G4  | 
w:   |   |   | 
G4 A4 B4  | c4 d8  | d4 d4 {e}d2e2  | c4 c4 {d}c2d2  | \
w:   |   |  ARANAĞME  |   | 
B4 B4 {c}B2c2  | A4 A2B2 G4  | 
w:   |   | 
B8 A4  | B4 A4 G4  | G4 B4 d4  | G12  | G4 d8  | \
w:   |   |   |   |  Gül_ a  | 
d4 d2c2 c2B2  | c4 c2B2 B2A2  | 
w:  ğa *  cı   |  de ği  | 
A12  | B2A2 G8  | F2G2 A8  | G2A2 B8  | B2A2 G8  | \
w:  lem    |  Her  *  ge  |  le *  ne   |  e *  ği  |  lem    | 
c0 d4 d8  | d4 c2B2 c2B2  | 
w:  *  Çek_ e  |  li ni   | 
c4 c2B2 B2A2  | A12  | B2A2 G8  | F2G2 A8  | \
w:  e lim  |  den    |  Men  *  sev  |  gi *  len   | 
G2A2 B8  | B2A2 G4 z4  | c0 d4 d8  | 
w:  de *  ği  |  lem    |  *  Çek_ e  | 
d4 c2B2 c2B2  | c4 c2B2 B2A2  | A12  | B2A2 G8  | \
w:  li ni   |  e lim  |  den    |  Men  *  sev  | 
F2G2 A8  | G2A2 B8  | B2A2 G4 d4  | 
w:  gi *  len   |  de *  ği  |  lem   *  *  SAZ  | 
d4 d8  | d4 d8  | d4 d8  | d4 d6c2  | c4 d4 _3/4e4  | \
w:  Ni ce   |  bi le   |  arz_ ey  |  le yem    |  Kı zıl   | 
f4 f2_7/8e2 e2d2  | d8 c4  | B4 ^A4 B4  | 
w:  gü lem   |  men    |   | 
d4 d8  | d4 d8  | d4 d8  | d4 d6c2  | c4 d4 _3/4e4  | \
w:  Ni ce   |  bi le   |  arz_ ey  |  le yem    |  Kı zıl   | 
f4 f2_7/8e2 e2d2  | d12  | G2A2 B2c2 d4  | 
w:  gü lem   |  men    |  SAZ  | 
d4 d4 {e}d2e2  | c4 c4 {d}c2d2  | B4 B4 {c}B2c2  | \
w:  Kol la  |  rı nı   |  sar  boy  | 
A4 A2B2 G4  | B8 A4  | B4 A4 G4  | 
w:  nu ma    |  Sev gi  |  li nem   | 
G4 A4 B4  | c4 d8  | d4 d4 {e}d2e2  | c4 c4 {d}c2d2  | \
w:  men    |   |  Kol la  |  rı nı   | 
B4 B4 {c}B2c2  | A4 A2B2 G4  | 
w:  sar  boy  |  nu ma    | 
B8 A4  | B4 A4 G4  | G12  | G12  | d4 d4 {e}d2e2  | \
w:  Sev gi  |  li nem   |  men    |   |  ARANAĞME  | 
c4 c4 {d}c2d2  | B4 B4 {c}B2c2  | A4 A2B2 G4  | 
w:   |   |   | 
B8 A4  | B4 A4 G4  | G4 A4 B4  | c4 d8  | d4 d4 {e}d2e2  | \
w:   |   |   |   |  ARANAĞME  | 
c4 c4 {d}c2d2  | B4 B4 {c}B2c2  | 
w:   |   | 
A4 A2B2 G4  | B8 A4  | B4 A4 G4  | G4 B4 d4  | G12  | \
w:   |   |   |   |   | 
G4 d8  | d4 d2c2 c2B2  | c4 c2B2 B2A2  | 
w:  Gül_ a  |  ğa *  cı   |  de ği  | 
A12  | B2A2 G8  | F2G2 A8  | G2A2 B8  | B2A2 G8  | \
w:  lem    |  Her  *  ge  |  le *  ne   |  e *  ği  |  lem    | 
c0 d4 d8  | d4 c2B2 c2B2  | 
w:  *  Çek_ e  |  li ni   | 
c4 c2B2 B2A2  | A12  | B2A2 G8  | F2G2 A8  | \
w:  e lim  |  den    |  Men  *  sev  |  gi *  len   | 
G2A2 B8  | B2A2 G4 z4  | c0 d4 d8  | 
w:  de *  ği  |  lem    |  *  Çek_ e  | 
d4 c2B2 c2B2  | c4 c2B2 B2A2  | A12  | B2A2 G8  | \
w:  li ni   |  e lim  |  den    |  Men  *  sev  | 
F2G2 A8  | G2A2 B8  | B2A2 G4 d4  | 
w:  gi *  len   |  de *  ği  |  lem   *  *  SAZ  | 
d4 d8  | d4 d8  | d4 d8  | d4 d6c2  | c4 d4 _3/4e4  | \
w:  Ni ce   |  bi le   |  arz_ ey  |  le yem    |  Kı zıl   | 
f4 f2_7/8e2 e2d2  | d8 c4  | B4 ^A4 B4  | 
w:  gü lem   |  men    |   | 
d4 d8  | d4 d8  | d4 d8  | d4 d6c2  | c4 d4 _3/4e4  | \
w:  Ni ce   |  bi le   |  arz_ ey  |  le yem    |  Kı zıl   | 
f4 f2_7/8e2 e2d2  | d12  | G2A2 B2c2 d4  | 
w:  gü lem   |  men    |  SAZ  | 
d4 d4 {e}d2e2  | c4 c4 {d}c2d2  | B4 B4 {c}B2c2  | \
w:  Kol la  |  rı nı   |  sar  boy  | 
A4 A2B2 G4  | B8 A4  | B4 A4 G4  | 
w:  nu ma    |  Sev gi  |  li nem   | 
G4 A4 B4  | c4 d8  | d4 d4 {e}d2e2  | c4 c4 {d}c2d2  | \
w:  men    |   |  Kol la  |  rı nı   | 
B4 B4 {c}B2c2  | A4 A2B2 G4  | 
w:  sar  boy  |  nu ma    | 
B8 A4  | B4 A4 G4  | G12  | G12  | |


